X:811
T:Doherty's Fancy
N:"Collected by J.O'Neill"
B:O'Neill's 811
Z:Transcribed by Dan G. Petersen, dangp@post6.tele.dk
M:6/8
L:1/8
K:A
E|[E3A3] cBA|ecA aec|[E3A3] cBA|BGE dBG|
[E3A3] cBA|ecA aec|fga ecA|dBG G2:|
e|aga fga|gba gfe|aga fga|bag a2 (3(e/2f/2g/2)|
agf edc|fed cBA|fga ecA|dBG A2:|


